icon/lg/zenhub-icon.svg

<?xml version="1.0" encoding="UTF-8"?>
<svg viewBox="0 0 256 256" version="1.1" xmlns="http://www.w3.org/2000/svg" preserveAspectRatio="xMidYMid" height="1em" width="1em">
  <g>
    <path d="M149.8704,181.2904 L186.9896,218.8952 C195.4392,227.456 209.3576,227.5456 217.9184,219.096 C226.4792,210.6464 226.5704,196.728 218.12,188.1672 L180.3184,149.8696 L149.8704,149.8696 L149.8704,181.2904 Z" fill="#AFD94F"/>
    <path d="M106.1288,74.71104 L69.00896,37.1052 C60.55824,28.54336 46.64168,28.45344 38.08088,36.90416 C29.52016,45.35376 29.42912,59.27136 37.87984,67.83216 L75.68144,106.1288 L106.1304,106.1288 L106.1304,74.71104 L106.1288,74.71104 Z" fill="#AFD94F"/>
    <path d="M75.6816,106.1288 L21.87088,106.1288 C9.84256,106.1288 0,115.9704 0,128 C0,140.0296 9.84256,149.8712 21.87088,149.8712 L75.2,149.8712 L97.1712,127.9008 L75.68272,106.1304 L75.6816,106.1288 Z" fill="#38E1FA"/>
    <path d="M234.1296,106.1288 L180.7992,106.1288 L158.8288,128.0992 L180.3184,149.8696 L234.1296,149.8696 C246.1584,149.8696 256,140.028 256,127.9984 C256,115.9696 246.1584,106.128 234.1296,106.128 L234.1296,106.1288 Z" fill="#38E1FA"/>
    <path d="M75.19824,149.8704 L37.48872,187.58 C28.98296,196.0856 28.98296,210.0048 37.48872,218.5104 C45.9944,227.016 59.91312,227.016 68.41888,218.5104 L106.1288,180.8008 L106.1288,149.872 L75.19824,149.872 L75.19824,149.8704 Z" fill="#515DF4"/>
    <path d="M180.7984,106.1296 L218.508,68.41976 C227.0136,59.91408 227.0136,45.9964 218.508,37.49072 C210.0024,28.98392 196.0848,28.98392 187.5792,37.49072 L149.8704,75.1992 L149.8704,106.128 L180.7984,106.128 L180.7984,106.1296 Z" fill="#515DF4"/>
    <path d="M149.8704,75.2 L149.8704,21.87088 C149.8704,9.84256 140.0288,0 127.9992,0 C115.9696,0 106.1288,9.84256 106.1288,21.87088 L106.1288,74.71104 L128.1,96.9696 L149.8704,75.2 Z" fill="#4BC6CF"/>
    <path d="M106.1288,180.8 L106.1288,234.1288 C106.1288,246.1584 115.9696,256 127.9992,256 C140.0288,256 149.8704,246.1584 149.8704,234.1288 L149.8704,181.2896 L127.8976,159.0304 L106.1288,180.8 Z" fill="#4BC6CF"/>
    <polygon fill="#50DEB4" points="106.1296 118.9408 106.1296 106.1296 75.68216 106.1296 97.1712 127.9"/>
    <polygon fill="#50DEB4" points="149.8712 137.0584 149.8712 149.8704 180.3184 149.8704 158.8288 128.0992"/>
    <polygon fill="#5575F1" points="149.8712 119.0248 158.8288 128.1 180.7992 106.1296 149.8712 106.1296"/>
    <polygon fill="#5575F1" points="106.1296 136.9768 97.1704 127.8992 75.1992 149.8712 106.1296 149.8712"/>
    <polygon fill="#5073E8" points="149.8704 137.0576 158.828 128.0992 149.8704 119.024"/>
    <polygon fill="#5073E8" points="97.1704 127.8992 106.1288 136.9768 106.1288 118.9408"/>
    <polygon fill="#38BAA5" points="137.0584 149.8704 127.8992 159.0304 149.8712 181.2896 149.8712 149.8704"/>
    <polygon fill="#38BAA5" points="118.94 106.1288 128.1 96.9688 106.1288 74.71072 106.1288 106.1288"/>
    <polygon fill="#2AB2C2" points="149.8712 149.8712 149.8712 137.0584 137.0584 149.8712"/>
    <polygon fill="#2AB2C2" points="106.1288 106.1296 106.1288 118.9408 118.94 106.1296"/>
    <polygon fill="#2EA7CD" points="137.1416 106.1296 149.8704 106.1296 149.8704 75.20016 128.1 96.9696"/>
    <polygon fill="#2EA7CD" points="118.856 149.8704 106.1288 149.8704 106.1288 180.8 127.8976 159.0304"/>
    <polygon fill="#2DA5C5" points="127.8984 159.0304 137.0584 149.8704 118.8576 149.8704"/>
    <polygon fill="#2DA5C5" points="128.1 96.9696 118.9408 106.1288 137.1416 106.1288"/>
    <polygon fill="#2CA7CD" points="149.8704 106.1296 137.1416 106.1296 149.8704 119.0248"/>
    <polygon fill="#2CA7CD" points="106.1288 149.8712 118.856 149.8712 106.1288 136.9768"/>
    <polygon fill="#2CA5C8" points="137.1408 106.1296 118.94 106.1296 106.1288 118.9408 106.1288 136.9768 118.856 149.8712 137.0576 149.8712 149.8704 137.0584 149.8704 119.0248"/>
  </g>
</svg>

<svg width="256" height="256" xmlns="http://www.w3.org/2000/svg" preserveAspectRatio="xMidYMid"><path d="m149.87 181.29 37.12 37.605c8.45 8.561 22.368 8.65 30.928.201 8.561-8.45 8.652-22.368.202-30.929l-37.802-38.297H149.87v31.42ZM106.129 74.711l-37.12-37.606c-8.45-8.562-22.367-8.652-30.928-.2-8.56 8.449-8.652 22.366-.201 30.927L75.68 106.13h30.45V74.71h-.002Z" fill="#AFD94F"/><path d="M75.682 106.129H21.87C9.843 106.129 0 115.97 0 128s9.843 21.871 21.87 21.871H75.2l21.971-21.97-21.488-21.77-.001-.002ZM234.13 106.129H180.8l-21.971 21.97 21.49 21.77h53.81c12.03 0 21.871-9.841 21.871-21.87 0-12.03-9.842-21.871-21.87-21.871Z" fill="#38E1FA"/><path d="m75.198 149.87-37.71 37.71c-8.505 8.506-8.505 22.425 0 30.93 8.506 8.506 22.425 8.506 30.93 0l37.71-37.71v-30.928h-30.93v-.002ZM180.798 106.13l37.71-37.71c8.506-8.506 8.506-22.424 0-30.93s-22.423-8.506-30.929 0L149.87 75.2v30.928h30.928v.002Z" fill="#515DF4"/><path d="M149.87 75.2V21.87C149.87 9.844 140.03 0 128 0c-12.03 0-21.871 9.843-21.871 21.87v52.841L128.1 96.97l21.77-21.77ZM106.129 180.8v53.329c0 12.03 9.84 21.871 21.87 21.871 12.03 0 21.871-9.842 21.871-21.871v-52.84l-21.972-22.259-21.77 21.77Z" fill="#4BC6CF"/><path fill="#50DEB4" d="M106.13 118.94v-12.81H75.682l21.49 21.77zM149.871 137.058v12.812h30.447l-21.49-21.77z"/><path fill="#5575F1" d="m149.871 119.025 8.958 9.075 21.97-21.97h-30.928zM106.13 136.977l-8.96-9.078-21.97 21.972h30.93z"/><path fill="#5073E8" d="m149.87 137.058 8.958-8.959-8.958-9.075zM97.17 127.9l8.959 9.077V118.94z"/><path fill="#38BAA5" d="m137.058 149.87-9.159 9.16 21.972 22.26v-31.42zM118.94 106.129l9.16-9.16-21.971-22.258v31.418z"/><path fill="#2AB2C2" d="M149.871 149.871v-12.813l-12.813 12.813zM106.129 106.13v12.81l12.811-12.81z"/><path fill="#2EA7CD" d="M137.142 106.13h12.728V75.2L128.1 96.97zM118.856 149.87h-12.727v30.93l21.769-21.77z"/><path fill="#2DA5C5" d="m127.898 159.03 9.16-9.16h-18.2zM128.1 96.97l-9.16 9.159h18.202z"/><path fill="#2CA7CD" d="M149.87 106.13h-12.728l12.728 12.895zM106.129 149.871h12.727l-12.727-12.894z"/><path fill="#2CA5C8" d="M137.14 106.13h-18.2l-12.811 12.81v18.037l12.727 12.894h18.202l12.812-12.813v-18.033z"/></svg>
